X: 28143
T: Mrs Galvin's
R: hornpipe
M: 4/4
K: Dmajor
(3ABc|:d2 AG FEFD|GFGE FEFD|d2 AG FEFD|E2 e2 egfe|
d2 AG FEFD|G3E F2 DA|d3e fdAG|FGEF D2:|
(3ABc|:dcde fefg|agab agfe|dcde f3g|(3agf (3gfe dcBA|
d3e fefg|agab agfe|dcde fdAG|(3FGA EF D2:|

